X:5152
T:Feathers,The. HSJJ.162
M:4/4
L:1/8
Q:120
S:HSJ Jackson,Wyresdale,Lancs.1823
R:Misc.
O:England
A:Lancashire
H:1823
Z:Chris Partington.
K:D
d>edB A>FAd|fgfe~e2d2|d'c'ba gfed|cBAG FED2:|!
|:fgad fgeg|fgad fegf|bc'd'd b/c'/b/c'/ d'd|f2~e2d4:|!
|:D/E/F/G/ A/G/F/E/ D/E/F/G/ A/G/F/E/|D/E/F/G/ A/B/c/d/ e^GA2|
dedA fdgd|a>c'af (e/d/e/f/) d2:|!
|:d2fd ge c/d/e/c/|d2ef agfe|d2fd ge c/d/e/c/|efeff2e2|!
d2fd ge c/d/e/c/|d2ef agfe|d2fd gd c/d/e/c/|Adfe~e2d2:|]
